X: 69
T:Ymdaith Cyfarthfa
T:The Cyfarthfa March
M:C
L:1/8
Q:150
S:Cadw Twmpath Collection
R:March
A:Wales
Z:brian_martin12345@yahoo.com
K:G
B>c|d2d>dd2g2|d4B3d|c4B4|A2d>dd2B>c|
d2d>dd2g2|d4B2g2|f2d2e2^c2|d2d>dd2:||
d/e/f/g/|a3g gfed|{efga}b3ag2d/e/f/g/|a3g gfed|{efga}b3ag2G/A/B/c/|
d2d>dd2g>f|e2e>ee2 a/g/f/e/|{de}d3g bagf|g2g>gg2:||
